X:1
T:God Is Good
T:God Is Good
T:E. P. McMurray
T:M. G., 1880
T:Public Domain Courtesy of the Cyber Hymnal™
T:Public Domain Courtesy of the Cyber Hymnal™
C:E. P. McMurray
Z:Public Domain
Z:Courtesy of the Cyber Hymnal™
%%score ( 1 2 ) ( 3 4 )
L:1/8
Q:1/4=95
M:3/4
K:G
V:1 treble 
V:2 treble 
V:3 bass 
V:4 bass 
V:1
 [GB][Gc] | [Gd]3 [Gd] [Ge][Gd] | [Gd] [GB]3 [GB][GB] | ([FA]2 [EG]2) [FA]2 | [GB]4 [GB][Gc] | %5
w: 1.~“God is|good,” the danc- ing|sun- beams Paint in|tints * of|gold “God is|
w: 2.~“God is|good,” rings through the|wood- land— Birds peal|forth * the|song. “God is|
w: 3.~“God is|good,” all na- ture’s|ring- ing With the|note * of|praise. “God is|
 [Gd]3 [Gd] [Ge][Gd] | [Gd] [GB]3 [GB][GB] | (A2 d2) [G^c]2 | [Fd]4 [Ad][Bd] | %9
w: good,” with- in their|pe- tals Na- ture’s|flowers * en-|fold. “God is|
w: good,” the stars are|beam- ing In their|glo- * rious|throng. “God is|
w: good,” O man, re-|e- cho! Grate- ful|pæ- * ans|raise. “God is|
 [Ac]3 [Fc] [FA][Fe] | [Gd] [GB]3 [GB][GB] | [Gc]4 [FA]2 | [GB]4 [GB][Gc] | [Gd]3 [Gd] [Ge][Gd] | %14
w: good,” the spark- ling|rain- drops Speak in|mu- sic|low, “God is|good,” the lim- pid|
w: good,” the rain- bow|smil- eth From the|glow- ing|sky. “God is|good,” the south winds|
w: good,” and man He|lov- eth With an|end- less|love. “God is|good,” oh, may we|
 [Gd] [GB]3 [GB][GB] | (A2 B2) [FA]2 | G4 ||"^Refrain" G[GB] | [Ec]3 [Ec] [Ec][Ec] | %19
w: brook- lets Rip- ple|as * they|flow.|||
w: soft- ly Through the|for- * est|sigh.|“God is|good,” and man He|
w: sing it, In His|home * a-|bove.|||
 [Ec] [DB]3 [GB][Gd] | [^Ge]3 [Gd] [A^c][Gc] | [Fd]4 [GB][Gc] | [Gd]3 [Gd] [Ge][Gd] | %23
w: ||||
w: lov- eth With an|end- less, end- less|love. “God is|good,” oh, may we|
w: ||||
 [Gd] [GB]3 [DG][DA] | [DB][Ec] [DB]2 [DA]2 | [DG]4 |] %26
w: |||
w: sing it In His|hap- py home a-|bove.|
w: |||
V:2
 x2 | x6 | x6 | x6 | x6 | x6 | x6 | F4 x2 | x6 | x6 | x6 | x6 | x6 | x6 | x6 | F4 x2 | G4 || G x | %18
 x6 | x6 | x6 | x6 | x6 | x6 | x6 | x4 |] %26
V:3
 G,[G,A,] | [G,B,]3 [G,B,] [G,C][G,B,] | [G,B,] [G,D]3 [G,D][G,D] | ([D,C]2 [E,B,]2) [D,D]2 | %4
 [G,D]4 G,[G,A,] | [G,B,]3 [G,B,] [G,C][G,B,] | [G,B,] [G,D]3 [G,D][G,D] | [A,D]4 [A,E]2 | %8
 [D,D]4 [D,A,][D,G,] | [D,F,]3 [D,A,] [D,D][D,C] | [G,B,] [G,B,]3 [G,D][G,D] | [C,E]4 [D,D]2 | %12
 [G,D]4 G,[G,A,] | [G,B,]3 [G,B,] [G,C][G,B,] | [G,B,] [G,D]3 [G,D][G,D] | (C2 D2) [D,C]2 | %16
 [G,B,]4 || G,G, | [C,G,]3 [C,G,] [C,G,][C,A,] | G, G,3 [G,D][G,B,] | [E,B,]3 [E,E] [A,E][A,E] | %21
 [D,D]4 G,[G,A,] | [G,B,]3 [G,B,] [G,C][G,B,] | [G,B,] [G,D]3 [B,,G,][C,G,] | %24
 [D,G,][D,G,] [D,G,]2 [D,C]2 | [G,,G,B,]4 |] %26
V:4
 G, x | x6 | x6 | x6 | x4 G, x | x6 | x6 | x6 | x6 | x6 | x6 | x6 | x4 G, x | x6 | x6 | D,4 x2 | %16
 x4 || G,G, | x6 | G, G,3 x2 | x6 | x4 G, x | x6 | x6 | x6 | x4 |] %26

